packages/ui-icons/svg/Solid/remove-from-collection.svg

<svg viewBox="0 0 1920 1920" version="1.1" xmlns="http://www.w3.org/2000/svg">
    <path d="M0,1920 L1242.35294,1920 L1242.35294,677.647059 L0,677.647059 L0,1920 Z M1581.17647,338.823529 L1581.17647,1581.17647 L1355.29412,1581.17647 L1355.29412,564.705882 L338.823529,564.705882 L338.823529,338.823529 L1581.17647,338.823529 Z M903.529412,1242.35294 L903.529412,1355.29412 L338.823529,1355.29412 L338.823529,1242.35294 L903.529412,1242.35294 Z M1920.03388,-0.0112941176 L1920.03388,1242.34165 L1694.15153,1242.34165 L1694.15153,225.871059 L677.680941,225.871059 L677.680941,-0.0112941176 L1920.03388,-0.0112941176 Z" stroke="none" stroke-width="1" fill-rule="evenodd"/>
</svg>

<svg viewBox="0 0 1920 1920" version="1.1" xmlns="http://www.w3.org/2000/svg">
    <path d="M0 1920h1242.353V677.647H0V1920zm338.824-564.706v-112.941h564.705v112.941H338.824zm0-790.588V338.824h1242.352v1242.352h-225.882V564.706H338.824zM677.68-.011h1242.353v1242.353h-225.882V225.872H677.68V-.012z" stroke="none" stroke-width="1" fill-rule="evenodd"/>
</svg>
